Adwaita++/status/symbolic/kazam-screencast-symbolic.svg

<svg height="16" width="16" xmlns="http://www.w3.org/2000/svg">
  <path d="m2 3c-.554 0-1 .446-1 1v8c0 .554.446 1 1 1h9c.554 0 1-.446 1-1v-4-4c0-.554-.446-1-1-1zm10 5 4 4v-7.5z" fill="#474747"/>
</svg>

<svg xmlns="http://www.w3.org/2000/svg" width="16" height="16" version="1.1">
 <defs>
  <style id="current-color-scheme" type="text/css">
   .ColorScheme-Text { color:#474747; } .ColorScheme-Highlight { color:#4285f4; }
  </style>
 </defs>
 <path style="fill:currentColor" class="ColorScheme-Text" d="M 2,3 C 1.446,3 1,3.446 1,4 V 12 C 1,12.554 1.446,13 2,13 H 11 C 11.554,13 12,12.554 12,12 V 8 4 C 12,3.446 11.554,3 11,3 Z M 12,8 16,12 V 4.5 Z"/>
</svg>
